markup/public/images/card-03.svg

<svg width="44" height="44" viewBox="0 0 44 44" fill="none" xmlns="http://www.w3.org/2000/svg">
<path d="M24.8547 38.4272C19.921 38.4272 14.9977 38.4272 10.0639 38.4272C7.52986 38.4272 5.77151 36.6597 5.77151 34.1125C5.77151 24.2146 5.77151 14.327 5.77151 4.42911C5.77151 1.75709 7.50917 0 10.1674 0C19.9934 0 29.8195 0 39.6455 0C42.2313 0 44 1.77788 44 4.37713C44.0104 14.2543 44.0104 24.1314 44.0104 34.0085C44.0104 36.6805 42.2624 38.4272 39.5938 38.4272C34.6808 38.4376 29.7678 38.4272 24.8547 38.4272ZM41.1556 19.1928C41.1556 14.2543 41.1453 9.31569 41.1556 4.37713C41.1556 3.83648 41.0522 3.34783 40.5661 3.0879C40.2765 2.93195 39.9144 2.86957 39.5835 2.86957C29.7574 2.85917 19.9314 2.85917 10.1157 2.85917C9.09168 2.85917 8.59521 3.34783 8.58487 4.38752C8.57452 5.5104 8.58487 6.64367 8.58487 7.76654C8.58487 16.5 8.58487 25.2335 8.58487 33.9565C8.58487 35.1418 9.05031 35.5992 10.2088 35.5992C19.9831 35.5992 29.7471 35.5992 39.5214 35.6096C40.6695 35.6096 41.1453 35.121 41.1453 33.9565C41.1556 29.0284 41.1556 24.1106 41.1556 19.1928Z" fill="#F9A536"/>
<path d="M4.09591 5.57275C4.09591 6.55007 4.09591 7.44421 4.09591 8.33835C2.94781 8.82701 2.84438 8.99336 2.84438 10.2618C2.84438 19.983 2.84438 29.7041 2.83404 39.4253C2.83404 39.914 2.79267 40.4546 3.22708 40.7561C3.52703 40.9745 3.94076 41.1304 4.30277 41.1304C10.9224 41.1512 17.5421 41.1408 24.1617 41.1512C27.3888 41.1512 30.6055 41.1512 33.8326 41.1512C34.7221 41.1512 35.0221 40.9329 35.3738 40.1323C35.4255 40.0075 35.6117 39.8724 35.7358 39.8724C36.5425 39.8516 37.3493 39.862 38.2181 39.862C38.2078 41.1304 37.732 42.1389 36.8322 42.9499C35.9944 43.7089 34.9911 44 33.8843 44C25.6098 44 17.3352 44 9.06065 43.9896C7.47814 43.9896 5.88528 43.9896 4.30277 43.9896C1.78937 43.9792 0 42.1909 0 39.6644C0 29.7457 0 19.8166 0 9.8875C0 7.68334 1.38599 6.00943 3.48566 5.62474C3.67184 5.59355 3.85802 5.59355 4.09591 5.57275Z" fill="#F9A536"/>
<path d="M17.2525 19.1928C17.2525 16.6975 17.2525 14.2022 17.2525 11.707C17.2525 11.5198 17.2421 11.3223 17.2525 11.1351C17.2835 10.0538 18.0179 9.59638 18.9798 10.0954C20.1382 10.6985 21.2863 11.3431 22.4344 11.9773C26.1166 14.0047 29.8091 16.0217 33.4913 18.0491C33.5844 18.1011 33.6775 18.1427 33.7602 18.1947C34.6704 18.7665 34.6704 19.723 33.7292 20.2533C32.488 20.9603 31.2158 21.6257 29.9643 22.3223C26.3855 24.2873 22.8068 26.2627 19.228 28.2381C19.1866 28.2589 19.1349 28.2901 19.0936 28.3109C18.0799 28.8412 17.2421 28.3421 17.2421 27.1881C17.2421 24.5264 17.2421 21.8648 17.2525 19.1928Z" fill="#F9A536"/>
</svg>

<svg width="44" height="44" viewBox="0 0 44 44" fill="none" xmlns="http://www.w3.org/2000/svg"><path d="M24.855 38.427H10.064c-2.534 0-4.292-1.767-4.292-4.315V4.43C5.772 1.757 7.509 0 10.167 0h29.478C42.231 0 44 1.778 44 4.377c.01 9.877.01 19.754.01 29.631 0 2.672-1.748 4.42-4.416 4.42-4.913.01-9.826 0-14.74 0zm16.3-19.234c0-4.939-.01-9.877 0-14.816 0-.54-.103-1.03-.589-1.29-.29-.155-.652-.217-.983-.217-9.826-.01-19.652-.01-29.467-.01-1.024 0-1.52.488-1.531 1.528-.01 1.122 0 2.256 0 3.379v26.19c0 1.185.465 1.642 1.624 1.642 9.774 0 19.538 0 29.312.01 1.148 0 1.624-.488 1.624-1.653.01-4.928.01-9.845.01-14.763z" fill="#F9A536"/><path d="M4.096 5.573v2.765c-1.148.489-1.252.655-1.252 1.924 0 9.721 0 19.442-.01 29.163 0 .489-.041 1.03.393 1.331.3.218.714.374 1.076.374 6.62.021 13.24.01 19.859.021h9.67c.89 0 1.19-.218 1.542-1.019.051-.124.238-.26.362-.26.806-.02 1.613-.01 2.482-.01-.01 1.268-.486 2.277-1.386 3.088-.838.759-1.84 1.05-2.948 1.05-8.274 0-16.549 0-24.823-.01H4.303C1.789 43.98 0 42.19 0 39.664V9.887C0 7.683 1.386 6.01 3.486 5.625c.186-.031.372-.031.61-.052z" fill="#F9A536"/><path d="M17.253 19.193v-7.486c0-.187-.01-.385 0-.572.03-1.081.765-1.539 1.727-1.04 1.158.603 2.306 1.248 3.454 1.882 3.683 2.028 7.375 4.045 11.057 6.072.093.052.187.094.27.146.91.572.91 1.528-.032 2.058-1.241.707-2.513 1.373-3.765 2.07-3.578 1.964-7.157 3.94-10.736 5.915-.041.02-.093.052-.134.073-1.014.53-1.852.031-1.852-1.123 0-2.662 0-5.323.01-7.995z" fill="#F9A536"/></svg>
